app/src/main/assets/symbols/health/doctor.svg

<?xml version="1.0" encoding="UTF-8" standalone="no"?>
<svg
   xmlns:dc="http://purl.org/dc/elements/1.1/"
   xmlns:cc="http://creativecommons.org/ns#"
   xmlns:rdf="http://www.w3.org/1999/02/22-rdf-syntax-ns#"
   xmlns:svg="http://www.w3.org/2000/svg"
   xmlns="http://www.w3.org/2000/svg"
   version="1.1"
   width="16"
   height="16"
   viewBox="0 0 16 16"
   id="svg2">
   <metadata id="metadata8">
    <rdf:RDF>
      <cc:Work rdf:about="">
        <dc:format>image/svg+xml</dc:format>
        <dc:type rdf:resource="http://purl.org/dc/dcmitype/StillImage"/>
        <dc:title/>
      </cc:Work>
    </rdf:RDF>
  </metadata>
  <defs id="defs6"/>
  <rect width="16" height="16" x="0" y="0" id="canvas" style="fill:none;stroke:none;visibility:hidden"/>
  <path d="M 7,1 C 5.83929,1 4.667834,1.5047052 3.875,2.5 3.187514,3.3630449 3,4 2.90625,5.0000004 0.01009,5.0238004 0,6.0817104 0,13 l 14,0 C 14,6.0817104 13.9899,5.0237504 11.09375,5.0000004 11,4 10.795537,3.3460958 10.125,2.5 9.334655,1.5027279 8.16071,1 7,1 z M 7,3 C 8.281412,2.99511 9,4 9.0625,5.0000004 l -4.125,0 C 5,4 5.718588,3.0048937 7,3 z m -1,3.0000004 2,0 L 8,8 l 2,0 0,2 -2,0 0,2 -2,0 0,-2 -2,0 0,-2 2,0 z" id="doctor" style="fill:#da0092;fill-opacity:1;stroke:none" transform="translate(1,1)"/>
</svg>

<?xml version="1.0" encoding="UTF-8"?>
<svg version="1.1" viewBox="0 0 16 16" xmlns="http://www.w3.org/2000/svg" xmlns:cc="http://creativecommons.org/ns#" xmlns:dc="http://purl.org/dc/elements/1.1/" xmlns:rdf="http://www.w3.org/1999/02/22-rdf-syntax-ns#">
<metadata>
<rdf:RDF>
<cc:Work rdf:about="">
<dc:format>image/svg+xml</dc:format>
<dc:type rdf:resource="http://purl.org/dc/dcmitype/StillImage"/>
<dc:title/>
</cc:Work>
</rdf:RDF>
</metadata>
<rect width="16" height="16" fill="none" visibility="hidden"/>
<path transform="translate(1,1)" d="m7 1c-1.1607 0-2.3322 0.50471-3.125 1.5-0.68749 0.86304-0.875 1.5-0.96875 2.5-2.8962 0.0238-2.9062 1.0817-2.9062 8h14c0-6.9183-0.0101-7.9762-2.9062-8-0.09375-1-0.29821-1.6539-0.96875-2.5-0.79034-0.99727-1.9643-1.5-3.125-1.5zm0 2c1.2814-0.00489 2 1 2.0625 2h-4.125c0.0625-1 0.78109-1.9951 2.0625-2zm-1 3h2v2h2v2h-2v2h-2v-2h-2v-2h2z" fill="#da0092"/>
</svg>
